X:2770
T:Lapp-Visa efter Nils Jansson
R:Visa
S:efter Nils Jansson
O:Västerbotten, Hallnäs
O:Degerfors, Edlunda
B:http://www.smus.se/earkiv/fmk/browselarge.php?lang=sw&katalogid=Upprop+19&bildnr=00037
N:"Janssons föräldrar lärde den av lappar i sin ungdom"
L:1/8
M:C
Z:Nils L
K:Gm
G | d2 GA B2 AG | BA ^FF G2>G2 | dd cd e2 dc | AA Bc d2>B2 | 
dd cB A2 cB | dd GG ^F2>(D2 | G)G Ac B2 AG | (PBA) ^FF G2 z2 |] 
(:musicend:)
(:music:)
